assets/Seal/Flat/seal_flat.svg

<svg width="32" height="32" viewBox="0 0 32 32" fill="none" xmlns="http://www.w3.org/2000/svg">
<path d="M3.94531 26.7454V23.0032H7.96875V27.0297C7.96875 28.2922 6.03125 28.9954 5.23438 28.9954H2.53125C2.35417 29.0318 2 28.8704 2 28.4954C2 28.1204 2.27747 28.0621 2.53125 28.0266C3.3125 27.9172 3.80469 27.2454 3.94531 26.7454Z" fill="#636363"/>
<path d="M11.78 29.0003C6.38 29.0003 2 24.6203 2 19.2203V14.5803C2 11.0003 4.86 8.03025 8.44 8.00025C11.89 7.97025 14.72 10.6203 14.98 14.0003C15.1512 15.5413 16.1247 16.8478 17.4633 17.5182L19 19L20.7296 17.8299C22.6308 17.2831 24 15.5007 24 13.4403V11.1303C24 10.4503 24.71 10.0103 25.33 10.3103C26.32 10.8003 27 11.8203 27 13.0003C27 11.8203 27.68 10.8003 28.67 10.3103C29.29 10.0003 30 10.4503 30 11.1303V14.8803C30 18.1193 29.2429 21.1306 27.7931 23.5332L23 27L18.25 28.9983C18.1671 28.9997 18.0837 29.0004 18 29.0003L15.125 29L12.5 28.5L11.78 29.0003Z" fill="#9B9B9B"/>
<path d="M7.11 14.0002H10.02C10.98 14.0002 11.76 14.7802 11.75 15.7402C11.75 16.7002 10.97 17.4802 10.01 17.4802C9.41 17.4802 8.87 17.1702 8.56 16.7002C8.25 17.1702 7.72 17.4802 7.11 17.4802C6.15 17.4802 5.37 16.7002 5.37 15.7402C5.37 14.7802 6.15 14.0002 7.11 14.0002Z" fill="#D3D3D3"/>
<path d="M11.61 24.9904V21.2304C11.61 19.5604 10.29 18.1604 8.61999 18.1304C6.90999 18.1004 5.51999 19.4804 5.51999 21.1704V22.7504C5.51999 26.1804 8.27999 28.9704 11.71 29.0004H15.63C13.41 29.0004 11.61 27.2004 11.61 24.9904Z" fill="#D3D3D3"/>
<path d="M16.62 22.3982V26.5002C16.62 27.3202 17.29 27.9902 18.11 27.9902C18.39 27.9902 18.61 28.2102 18.61 28.4902C18.61 28.7664 18.3958 28.9938 18.1211 28.9998C22.56 28.9666 25.8532 26.7911 27.8321 23.468L28.1172 22.9648C27.8242 23.21 27.3078 23.6067 27.0446 23.8339C25.1684 25.4537 23.8531 26.5892 20.3125 26.8266C18.0593 26.9297 17.342 24.5942 16.9235 23.2313C16.8083 22.8562 16.7157 22.5548 16.62 22.3982Z" fill="#D3D3D3"/>
<path d="M18.1033 28.9999H16.4812L18 29.0002C18.0345 29.0002 18.069 29.0001 18.1033 28.9999Z" fill="#D3D3D3"/>
<path d="M6.81 13.2102C6.81 13.6244 6.47421 13.9602 6.06 13.9602C5.64578 13.9602 5.31 13.6244 5.31 13.2102C5.31 12.796 5.64578 12.4602 6.06 12.4602C6.47421 12.4602 6.81 12.796 6.81 13.2102Z" fill="#1C1C1C"/>
<path d="M11.07 13.9602C11.4842 13.9602 11.82 13.6244 11.82 13.2102C11.82 12.796 11.4842 12.4602 11.07 12.4602C10.6558 12.4602 10.32 12.796 10.32 13.2102C10.32 13.6244 10.6558 13.9602 11.07 13.9602Z" fill="#1C1C1C"/>
<path d="M8.18999 15.6502L7.38999 14.9902C7.25999 14.8802 7.18999 14.7202 7.18999 14.5602C7.18999 14.2502 7.43999 14.0002 7.74999 14.0002H9.37999C9.68999 14.0002 9.93999 14.2502 9.93999 14.5602C9.93999 14.7302 9.85999 14.8902 9.73999 14.9902L8.93999 15.6502C8.71999 15.8302 8.40999 15.8302 8.18999 15.6502Z" fill="#1C1C1C"/>
<path d="M20.89 18.4903C20.89 19.5203 20.06 20.3503 19.03 20.3503C18 20.3503 17.17 19.5203 17.16 18.4903C17.16 18.1303 17.26 17.8003 17.44 17.5103C18.06 17.8203 18.75 18.0003 19.49 18.0003H19.62C20.02 17.9903 20.4 17.9303 20.76 17.8203C20.84 18.0203 20.89 18.2503 20.89 18.4903Z" fill="#636363"/>
<path d="M24.71 19.4903C24.71 20.1199 24.1996 20.6303 23.57 20.6303C22.9404 20.6303 22.43 20.1199 22.43 19.4903C22.43 18.8607 22.9404 18.3503 23.57 18.3503C24.1996 18.3503 24.71 18.8607 24.71 19.4903Z" fill="#636363"/>
</svg>

<svg xmlns="http://www.w3.org/2000/svg" width="32" height="32" fill="none"><path fill="#636363" d="M3.945 26.745v-3.742H7.97v4.027c0 1.262-1.938 1.965-2.735 1.965H2.531c-.177.037-.531-.125-.531-.5s.277-.433.531-.468c.781-.11 1.274-.782 1.414-1.282Z"/><path fill="#9B9B9B" d="M11.78 29C6.38 29 2 24.62 2 19.22v-4.64C2 11 4.86 8.03 8.44 8a6.499 6.499 0 0 1 6.54 6c.171 1.541 1.145 2.848 2.483 3.518L19 19l1.73-1.17c1.9-.547 3.27-2.33 3.27-4.39v-2.31a.92.92 0 0 1 1.33-.82C26.32 10.8 27 11.82 27 13c0-1.18.68-2.2 1.67-2.69a.916.916 0 0 1 1.33.82v3.75c0 3.24-.757 6.25-2.207 8.653L23 27l-4.75 1.998C18.167 29 18.084 29 18 29h-2.875l-2.625-.5-.72.5Z"/><path fill="#D3D3D3" d="M7.11 14h2.91c.96 0 1.74.78 1.73 1.74 0 .96-.78 1.74-1.74 1.74-.6 0-1.14-.31-1.45-.78-.31.47-.84.78-1.45.78a1.741 1.741 0 0 1 0-3.48ZM11.61 24.99v-3.76c0-1.67-1.32-3.07-2.99-3.1a3.046 3.046 0 0 0-3.1 3.04v1.58c0 3.43 2.76 6.22 6.19 6.25h3.92c-2.22 0-4.02-1.8-4.02-4.01ZM16.62 22.398V26.5c0 .82.67 1.49 1.49 1.49.28 0 .5.22.5.5a.504.504 0 0 1-.489.51c4.439-.033 7.732-2.209 9.711-5.532l.285-.503c-.293.245-.81.642-1.072.869-1.877 1.62-3.192 2.755-6.733 2.993-2.253.103-2.97-2.233-3.389-3.596-.115-.375-.207-.676-.303-.833ZM18.103 29h-1.622H18.103Z"/><path fill="#1C1C1C" d="M6.81 13.21a.75.75 0 1 1-1.5 0 .75.75 0 0 1 1.5 0ZM11.07 13.96a.75.75 0 1 0 0-1.5.75.75 0 0 0 0 1.5ZM8.19 15.65l-.8-.66a.56.56 0 0 1 .36-.99h1.63a.56.56 0 0 1 .36.99l-.8.66c-.22.18-.53.18-.75 0Z"/><path fill="#636363" d="M20.89 18.49c0 1.03-.83 1.86-1.86 1.86-1.03 0-1.86-.83-1.87-1.86 0-.36.1-.69.28-.98.62.31 1.31.49 2.05.49h.13c.4-.01.78-.07 1.14-.18.08.2.13.43.13.67ZM24.71 19.49a1.14 1.14 0 1 1-2.28 0 1.14 1.14 0 0 1 2.28 0Z"/></svg>
